icons/1_Primary/Guru.com.svg

<svg width="1024" height="1024" viewBox="0 0 1024 1024" fill="none" xmlns="http://www.w3.org/2000/svg">
<g clip-path="url(#clip0_2_2352)">
<path d="M512 1024C794.77 1024 1024 794.77 1024 512C1024 229.23 794.77 0 512 0C229.23 0 0 229.23 0 512C0 794.77 229.23 1024 512 1024Z" fill="#728DBE"/>
<path d="M584.85 553.56C665 573.6 737 626.77 777.59 699.22H708.8C706.53 699.22 702.52 700.04 700.37 699.22C698.52 698.52 695.98 694.14 694.61 692.6C692.47 690.2 690.293 687.836 688.08 685.51C683.253 680.443 678.233 675.57 673.02 670.89C651.976 652.171 627.934 637.125 601.9 626.38C548.445 604.492 488.972 602.214 434 619.95C408.08 628.27 383.87 641.69 362.19 658.08C351.389 666.178 341.244 675.115 331.85 684.81C329.637 687.116 327.473 689.473 325.36 691.88C323.92 693.53 321.18 698.45 319.24 699.23C318.59 699.49 317.44 699.17 316.76 699.23C303 700.52 288.5 699.23 274.69 699.23H242C283 626 355.2 573.83 436.25 553.56C389.81 542.42 347 518.74 311.47 487C302.268 478.79 293.625 469.974 285.6 460.61C281.6 455.98 277.81 451.23 274.07 446.41C272.423 444.283 270.79 442.143 269.17 439.99C268.261 439.002 267.457 437.923 266.77 436.77C265.237 435.743 265.183 434.67 266.61 433.55L267.61 431.96C280.45 412.36 297.21 394.91 314.37 379.02C318.69 375.02 323.37 371.49 328.02 367.83C332.79 364.05 339.17 360.6 343.3 356.18C345.01 354.35 345 354.59 345.39 352.05C345.63 350.48 345.91 348.92 346.28 347.38C346.83 345.02 347.589 342.714 348.55 340.49C351.124 334.958 354.519 329.847 358.62 325.33C365.845 317.06 375.674 311.501 386.484 309.57C397.294 307.64 408.439 309.453 418.08 314.71C437.47 325.4 451.59 347.89 447.08 370.42C442.63 392.58 422.79 409.85 400.44 411.42C396.335 411.822 392.2 411.802 388.1 411.36C386.216 411.052 384.367 410.56 382.58 409.89C381.02 409.33 377.46 406.95 375.9 407.14C374.34 407.33 370.78 411.08 369.6 412.14C367.72 413.78 365.98 415.53 364.04 417.14C359.69 420.66 355.17 423.83 351.04 427.62C349.51 429.03 346.28 431.14 345.42 433.01C344.42 435.2 343.74 433.11 345.7 435.76C346.584 436.722 347.547 437.609 348.58 438.41C353.35 442.76 358.2 447.01 363.24 451.04C372.4 458.376 382.063 465.059 392.16 471.04C433.99 495.82 487.51 506.3 535.64 500.69C560.087 497.884 583.962 491.362 606.44 481.35C629.15 471.04 648.89 457.12 667.77 440.95C669.681 439.113 671.683 437.374 673.77 435.74C676.11 434.12 675.58 435.01 676.01 432.74C676.8 428.64 675.87 423.88 676.32 419.74C677.444 407.954 682.3 396.835 690.18 388C704.99 371.46 733.64 368.35 753.11 377.66C774.34 387.81 786.01 414.43 780.69 437.04C775.32 459.9 755.55 477.04 732 478.41C729 478.58 725.22 478.94 722.22 478.47C720.81 478.25 718.74 476.72 717.22 477.03C715.22 477.45 711.78 482.31 710.1 483.86C701.175 492.116 691.794 499.865 682 507.07C661.93 521.77 639.77 531.61 617.74 542.75C607.41 548 596 550.93 584.85 553.56ZM477.44 368.18C477.44 358.51 477.44 348.72 475.51 339.18C473.26 328.18 467.19 318.18 460.51 309.29C469.35 307.52 478.43 307.43 487.41 307.04C496.84 306.63 505.23 304.04 514.74 304.17C534.827 304.411 554.839 306.655 574.48 310.87C613.19 319.37 650.94 336.25 682.68 360.05C666.03 371.15 652.41 392.45 649.58 412.28C624.821 393.361 596.389 379.813 566.1 372.5C550.488 368.833 534.556 366.696 518.53 366.12C504.94 365.57 490.69 364.87 477.44 368.18ZM462 438.8C462 417.29 476.77 398.68 496.09 390.61C515.77 382.39 541.37 390.07 554.46 406.67C567.41 423.07 569.58 446.67 559.06 465.02C548.54 483.37 524.45 493.55 503.92 489.39C480.62 484.67 462 462.59 462 438.8Z" fill="white"/>
</g>
<defs>
<clipPath id="clip0_2_2352">
<rect width="1024" height="1024" fill="white"/>
</clipPath>
</defs>
</svg>

<svg width="1024" height="1024" fill="none" xmlns="http://www.w3.org/2000/svg"><g clip-path="url(#a)"><path d="M512 1024c282.77 0 512-229.23 512-512S794.77 0 512 0 0 229.23 0 512s229.23 512 512 512Z" fill="#728DBE"/><path d="M584.85 553.56C665 573.6 737 626.77 777.59 699.22H708.8c-2.27 0-6.28.82-8.43 0-1.85-.7-4.39-5.08-5.76-6.62-2.14-2.4-4.317-4.764-6.53-7.09a268.79 268.79 0 0 0-15.06-14.62 251.205 251.205 0 0 0-71.12-44.51 244.758 244.758 0 0 0-167.9-6.43c-25.92 8.32-50.13 21.74-71.81 38.13a256.462 256.462 0 0 0-30.34 26.73 216.284 216.284 0 0 0-6.49 7.07c-1.44 1.65-4.18 6.57-6.12 7.35-.65.26-1.8-.06-2.48 0-13.76 1.29-28.26 0-42.07 0H242c41-73.23 113.2-125.4 194.25-145.67C389.81 542.42 347 518.74 311.47 487a276.483 276.483 0 0 1-25.87-26.39c-4-4.63-7.79-9.38-11.53-14.2a583.886 583.886 0 0 1-4.9-6.42 19.488 19.488 0 0 1-2.4-3.22c-1.533-1.027-1.587-2.1-.16-3.22l1-1.59c12.84-19.6 29.6-37.05 46.76-52.94 4.32-4 9-7.53 13.65-11.19 4.77-3.78 11.15-7.23 15.28-11.65 1.71-1.83 1.7-1.59 2.09-4.13.24-1.57.52-3.13.89-4.67a40.6 40.6 0 0 1 2.27-6.89 60.56 60.56 0 0 1 10.07-15.16 48.271 48.271 0 0 1 59.46-10.62c19.39 10.69 33.51 33.18 29 55.71-4.45 22.16-24.29 39.43-46.64 41a60.3 60.3 0 0 1-12.34-.06 29.094 29.094 0 0 1-5.52-1.47c-1.56-.56-5.12-2.94-6.68-2.75-1.56.19-5.12 3.94-6.3 5-1.88 1.64-3.62 3.39-5.56 5-4.35 3.52-8.87 6.69-13 10.48-1.53 1.41-4.76 3.52-5.62 5.39-1 2.19-1.68.1.28 2.75a23.316 23.316 0 0 0 2.88 2.65c4.77 4.35 9.62 8.6 14.66 12.63a250.471 250.471 0 0 0 28.92 20c41.83 24.78 95.35 35.26 143.48 29.65a241.765 241.765 0 0 0 70.8-19.34c22.71-10.31 42.45-24.23 61.33-40.4a78.391 78.391 0 0 1 6-5.21c2.34-1.62 1.81-.73 2.24-3 .79-4.1-.14-8.86.31-13A55.618 55.618 0 0 1 690.18 388c14.81-16.54 43.46-19.65 62.93-10.34 21.23 10.15 32.9 36.77 27.58 59.38-5.37 22.86-25.14 40-48.69 41.37-3 .17-6.78.53-9.78.06-1.41-.22-3.48-1.75-5-1.44-2 .42-5.44 5.28-7.12 6.83a324.932 324.932 0 0 1-28.1 23.21c-20.07 14.7-42.23 24.54-64.26 35.68-10.33 5.25-21.74 8.18-32.89 10.81ZM477.44 368.18c0-9.67 0-19.46-1.93-29-2.25-11-8.32-21-15-29.89 8.84-1.77 17.92-1.86 26.9-2.25 9.43-.41 17.82-3 27.33-2.87a301.975 301.975 0 0 1 59.74 6.7c38.71 8.5 76.46 25.38 108.2 49.18-16.65 11.1-30.27 32.4-33.1 52.23a224.13 224.13 0 0 0-83.48-39.78 246.807 246.807 0 0 0-47.57-6.38c-13.59-.55-27.84-1.25-41.09 2.06ZM462 438.8c0-21.51 14.77-40.12 34.09-48.19 19.68-8.22 45.28-.54 58.37 16.06 12.95 16.4 15.12 40 4.6 58.35s-34.61 28.53-55.14 24.37c-23.3-4.72-41.92-26.8-41.92-50.59Z" fill="#fff"/></g><defs><clipPath id="a"><path fill="#fff" d="M0 0h1024v1024H0z"/></clipPath></defs></svg>
